images/Traffic_Sign_GR_-_KOK_2009_-_P-36.svg

<svg width="460" height="655" fill="none" xmlns="http://www.w3.org/2000/svg"><path d="M460 0H0v655h460V0z" fill="#0C479D"/><path d="M53 505V150h355v355H53z" fill="#fff"/><path d="m388.249 332.475-89.955 44.334-224.38-56.791 90.308-31.656 224.027 44.113z" fill="#fff"/><path d="m166.086 289.294-94.5 26.067v-45.618l94.5-17.691v37.242zM390.466 302.328l-92.172 40.964v33.517l92.172-40.965v-33.516z" fill="#fff"/><path d="m167.851 295.715 214.139 40.036 2.051-10.982-214.136-40.035-2.054 10.981z" fill="#000"/><path d="m386.291 298.174-92.172 41.896a5.59 5.59 0 0 0-3.276 5.086V408h11.173v-33.249l81-35.731v27.084h11.172v-62.845a5.587 5.587 0 0 0-7.897-5.085z" fill="#000"/><path d="m71.83 328.902 221.685 52.767a5.586 5.586 0 0 0 3.641-.366l92.509-42.828-4.692-10.139s-87.373 40.449-90.755 42.016l-219.8-52.32-2.588 10.87z" fill="#000"/><path d="M162.679 246.105 70.507 264.26A5.59 5.59 0 0 0 66 269.743V371.69h11.172v-55.902l88.31-21.179a5.59 5.59 0 0 0 3.862-5.315v-37.707a5.587 5.587 0 0 0-2.036-4.316 5.594 5.594 0 0 0-4.629-1.166z" fill="#000"/><path d="m75.776 305.121 49.344 28.862 84.724-38.174-44.689-20.481-89.38 29.793z" fill="#fff"/><path d="m163.39 270.027-89.379 29.792a5.582 5.582 0 0 0-3.791 4.723c-.226 2.181.888 16.351 2.78 17.458l49.301 16.805a5.589 5.589 0 0 0 5.114.272l84.724-38.174a5.583 5.583 0 0 0 3.291-5.075 5.603 5.603 0 0 0-3.257-5.097l-44.69-20.481a5.578 5.578 0 0 0-4.093-.223zm1.442 11.297c2.697 1.236 19.691 9.026 31.511 14.442-16.273 7.333-66.63 30.021-70.891 31.94a315473.73 315473.73 0 0 0-36.216-21.183c17.192-5.732 72.14-24.049 75.596-25.199z" fill="#000"/></svg>

<svg width="460" height="655" viewBox="0 0 460 655" fill="none" xmlns="http://www.w3.org/2000/svg">
<path d="M460 0H0V655H460V0Z" fill="#0C479D"/>
<path d="M53 505V150H408V505H53Z" fill="white"/>
<path d="M388.249 332.475L298.294 376.809L73.9146 320.018L164.222 288.362L388.249 332.475Z" fill="white"/>
<path d="M166.086 289.294L71.5863 315.361V269.743L166.086 252.052V289.294Z" fill="white"/>
<path d="M390.466 302.328L298.294 343.292V376.809L390.466 335.844V302.328Z" fill="white"/>
<path d="M167.851 295.715L381.99 335.751L384.041 324.769L169.905 284.734L167.851 295.715Z" fill="black"/>
<path d="M386.291 298.174L294.119 340.07C292.126 340.976 290.843 342.965 290.843 345.156V408H302.016V374.751L383.016 339.02V366.104H394.188V303.259C394.188 301.36 393.223 299.59 391.626 298.562C390.028 297.534 388.02 297.389 386.291 298.174Z" fill="black"/>
<path d="M71.8298 328.902L293.515 381.669C294.734 381.959 296.016 381.831 297.156 381.303L389.665 338.475L384.973 328.336C384.973 328.336 297.6 368.785 294.218 370.352C290.516 369.471 74.4173 318.032 74.4173 318.032L71.8298 328.902Z" fill="black"/>
<path d="M162.679 246.105L70.507 264.26C67.889 264.776 66 267.074 66 269.743V371.69H77.1724C77.1724 371.69 77.1724 343.478 77.1724 315.788L165.482 294.609C167.785 293.86 169.344 291.714 169.344 289.294V251.587C169.344 249.916 168.598 248.332 167.308 247.271C166.015 246.21 164.319 245.783 162.679 246.105Z" fill="black"/>
<path d="M75.7759 305.121L125.12 333.983L209.844 295.809L165.155 275.328L75.7759 305.121Z" fill="white"/>
<path d="M163.39 270.027L74.011 299.819C71.9289 300.512 70.446 302.358 70.2199 304.542C69.994 306.723 71.1082 320.893 73 322L122.301 338.805C123.86 339.717 125.767 339.819 127.415 339.077L212.139 300.903C214.137 300.002 215.425 298.018 215.43 295.828C215.43 293.638 214.163 291.646 212.173 290.731L167.483 270.25C166.196 269.658 164.733 269.58 163.39 270.027ZM164.832 281.324C167.529 282.56 184.523 290.35 196.343 295.766C180.07 303.099 129.713 325.787 125.452 327.706C121.986 325.678 101.488 313.688 89.2358 306.523C106.428 300.791 161.376 282.474 164.832 281.324Z" fill="black"/>
</svg>
